X: 11223
T: Dusk Chase
R: reel
M: 4/4
K: Dmajor
|:d4 A2Bc|d2A2 FED2|GAB2 E2GF|E2ed c2A2|
d4 A2Bc|d2A2 FED2|GAB2 E2dc|1 d4 A2Bc:|2 d4 d3e||
|:fed2 g2e2|a2AG FED2|G2B,2 G2G,2|A,2ED CB,A,2|
D2EF G2FG|ABc2 d2F2|GAB2 E2dc|1 d4 d3e:|2 d4 defg||
|:a4- a2b2|g4- g2a2|f3g fedf|e2A2- A2A2|
B2AB c2Bc|d2cd e2de|fga2 A2dc|1 d4 defg:|2 d4- d4||

